X:189
T:Miss Blands Allemand. THO5.189
R:Allemand
M:2/4
L:1/8
N:timing errors in 3rd and 4th strains caused
N:by missing pick up bars
B:Thompson's Complete Collection of 200 Favourite Dances Vol.5
F:https://www.libraryofdance.org/manuals/1780c-Thompson-Compleat-5.pdf
Z:vmp. Peter Dunk 2024
Q:1/4=110
K:Bb
F|BF/F/ cF/F/|dd/f/ cB/c/|d/e/f/g/ f/e/d/c/|BB B:|
|:f|f>e dd|d>c BF|G/B/A/c/ B/d/c/A/|BB B:|
|:D/E/F/G/ F/E/D/C/ |B,/C/D/E/ F/G/A/B/|A/B/c/d/ c/B/A/G/|FF "^NB"F:|
|:e>d cc|f>e dF|G/B/e/g/ f/e/d/c/|BB "NB"B:|
W:
W:Right hands across ./.
W:Left hands back again ./:
W:Hands 6 quite round :/.
W:& back again :/:
W:Allemand with your right hand ./:.
W:then with your left hand :./:

